X: 32
T:Kitchen Girl, The
M:4/4
L:1/8
S:Fiddle Players Tunebook 2
R:barndance
O:USA
K:Amix
"A"a4 g4 |\
"A"efed c2 cd |"A"e2 f2 gaba |"Em"g2 e2 e2 AA |"A"a4 g4 |\
"A"efed c2 cd |"A"e2 f2 gfed |"A"c2 A2 A4 :: 
K:AMinor
"Am"c4 B4 |"Am"ABAG E2 EG |"Am"A2 B2 c2 d2 |"Am"e3 f edcB |\
"Am"c4 B4 |"Am"ABAG E2 EE |"Am"cBAc BA G2 |"Am"A8 :|
